src/22/panel/mailspring-tray-empty.svg

<svg xmlns="http://www.w3.org/2000/svg" width="22" height="22" version="1.1">
 <defs>
  <style id="current-color-scheme" type="text/css">
   .ColorScheme-Text { color:#dfdfdf; } .ColorScheme-Highlight { color:#5294e2; }
  </style>
 </defs>
 <path style="fill:currentColor;opacity:0.3" class="ColorScheme-Text" d="M 11,2.9999999 A 8,8 0 0 0 3,11 a 8,8 0 0 0 8,8 8,8 0 0 0 8,-8 8,8 0 0 0 -8,-8.0000001 z m -5,4 10,0 L 11,12 6,6.9999999 Z M 6,8.4140621 9.2929688,11.707031 6,15 6,8.4140621 Z m 10,0 L 16,15 12.707031,11.707031 16,8.4140621 Z m -6,3.9999999 0.292969,0.292969 a 1.0001,1.0001 0 0 0 1.414062,0 L 12,12.414062 14.585938,15 7.4140625,15 10,12.414062 Z"/>
</svg>

<svg xmlns="http://www.w3.org/2000/svg" width="22" height="22"><defs><style id="current-color-scheme" type="text/css"></style></defs><path d="M11 3a8 8 0 0 0-8 8 8 8 0 0 0 8 8 8 8 0 0 0 8-8 8 8 0 0 0-8-8zM6 7h10l-5 5-5-5zm0 1.414l3.293 3.293L6 15V8.414zm10 0V15l-3.293-3.293L16 8.414zm-6 4l.293.293a1 1 0 0 0 1.414 0l.293-.293L14.586 15H7.414L10 12.414z" fill="currentColor" opacity=".3" color="#dfdfdf"/></svg>
